src/Pure-Dark/16/symbolic/mimetypes/media-video-symbolic.svg

<svg height="16" width="16" xmlns="http://www.w3.org/2000/svg"><path d="M1.75 1a.748.748 0 0 0-.75.75v13.5c0 .415.335.75.75.75h12.5c.416 0 .75-.335.75-.75V1.75a.748.748 0 0 0-.75-.75zM2 2h1v1H2zm2.5 0h7c.277 0 .5.223.5.5v5c0 .277-.223.5-.5.5h-7a.499.499 0 0 1-.5-.5v-5c0-.277.223-.5.5-.5zM13 2h1v1h-1zM2 4h1v1H2zm11 0h1v1h-1zM2 6h1v1H2zm11 0h1v1h-1zM2 8h1v1H2zm11 0h1v1h-1zM4.5 9h7c.277 0 .5.223.5.5v5c0 .277-.223.5-.5.5h-7a.499.499 0 0 1-.5-.5v-5c0-.277.223-.5.5-.5zM2 10h1v1H2zm11 0h1v1h-1zM2 12h1v1H2zm11 0h1v1h-1zM2 14h1v1H2zm11 0h1v1h-1z" fill="#f2f2f2" overflow="visible" style="marker:none" color="#bebebe"/></svg>

<?xml version="1.0" encoding="UTF-8" standalone="no"?>
<svg
   height="16"
   width="16"
   version="1.1"
   id="svg1"
   sodipodi:docname="media-video-symbolic.svg"
   inkscape:version="1.4.2 (ebf0e940d0, 2025-05-08)"
   xmlns:inkscape="http://www.inkscape.org/namespaces/inkscape"
   xmlns:sodipodi="http://sodipodi.sourceforge.net/DTD/sodipodi-0.dtd"
   xmlns="http://www.w3.org/2000/svg"
   xmlns:svg="http://www.w3.org/2000/svg">
  <defs
     id="defs1">
    <style
       id="current-color-scheme"
       type="text/css">
        .ColorScheme-Text { color:#f2f2f2; }
        .ColorScheme-NeutralText { color:#f67400; }
        .ColorScheme-PositiveText { color:#37c837; }
        .ColorScheme-NegativeText { color:#f44336; }
        .ColorScheme-Highlight { color:#3daee9; }
     </style>
  </defs>
  <sodipodi:namedview
     id="namedview1"
     pagecolor="#ffffff"
     bordercolor="#000000"
     borderopacity="0.25"
     inkscape:showpageshadow="2"
     inkscape:pageopacity="0.0"
     inkscape:pagecheckerboard="0"
     inkscape:deskcolor="#d1d1d1"
     inkscape:zoom="49.75"
     inkscape:cx="7.9899497"
     inkscape:cy="8"
     inkscape:window-width="1920"
     inkscape:window-height="1011"
     inkscape:window-x="0"
     inkscape:window-y="0"
     inkscape:window-maximized="1"
     inkscape:current-layer="svg1" />
  <path
     id="path1"
     style="fill:currentColor"
     class="ColorScheme-Text"
     d="M 1.75 1 A 0.748 0.748 0 0 0 1 1.75 L 1 15.25 C 1 15.665 1.335 16 1.75 16 L 14.25 16 C 14.666 16 15 15.665 15 15.25 L 15 1.75 A 0.748 0.748 0 0 0 14.25 1 L 1.75 1 z M 2 2 L 3 2 L 3 3 L 2 3 L 2 2 z M 4.5 2 L 11.5 2 C 11.777 2 12 2.223 12 2.5 L 12 7.5 C 12 7.777 11.777 8 11.5 8 L 4.5 8 A 0.499 0.499 0 0 1 4 7.5 L 4 2.5 C 4 2.223 4.223 2 4.5 2 z M 13 2 L 14 2 L 14 3 L 13 3 L 13 2 z M 2 4 L 3 4 L 3 5 L 2 5 L 2 4 z M 13 4 L 14 4 L 14 5 L 13 5 L 13 4 z M 2 6 L 3 6 L 3 7 L 2 7 L 2 6 z M 13 6 L 14 6 L 14 7 L 13 7 L 13 6 z M 2 8 L 3 8 L 3 9 L 2 9 L 2 8 z M 13 8 L 14 8 L 14 9 L 13 9 L 13 8 z M 4.5 9 L 11.5 9 C 11.777 9 12 9.223 12 9.5 L 12 14.5 C 12 14.777 11.777 15 11.5 15 L 4.5 15 A 0.499 0.499 0 0 1 4 14.5 L 4 9.5 C 4 9.223 4.223 9 4.5 9 z M 2 10 L 3 10 L 3 11 L 2 11 L 2 10 z M 13 10 L 14 10 L 14 11 L 13 11 L 13 10 z M 2 12 L 3 12 L 3 13 L 2 13 L 2 12 z M 13 12 L 14 12 L 14 13 L 13 13 L 13 12 z M 2 14 L 3 14 L 3 15 L 2 15 L 2 14 z M 13 14 L 14 14 L 14 15 L 13 15 L 13 14 z " />
</svg>
